Papirus/64x64/apps/com.github.cassidyjames.principles.svg

<?xml version="1.0" encoding="UTF-8" standalone="no"?>
<svg
   id="_图层_1"
   version="1.1"
   viewBox="0 0 64 64" width="64" height="64"
   sodipodi:docname="com.github.cassidyjames.principles.svg"
   xml:space="preserve"
   inkscape:version="1.4 (e7c3feb100, 2024-10-09)"
   xmlns:inkscape="http://www.inkscape.org/namespaces/inkscape"
   xmlns:sodipodi="http://sodipodi.sourceforge.net/DTD/sodipodi-0.dtd"
   xmlns="http://www.w3.org/2000/svg"
   xmlns:svg="http://www.w3.org/2000/svg"><sodipodi:namedview
     id="namedview26"
     pagecolor="#505050"
     bordercolor="#eeeeee"
     borderopacity="1"
     inkscape:showpageshadow="0"
     inkscape:pageopacity="0"
     inkscape:pagecheckerboard="0"
     inkscape:deskcolor="#505050"
     inkscape:zoom="8.453125"
     inkscape:cx="31.94085"
     inkscape:cy="33.833641"
     inkscape:window-width="1920"
     inkscape:window-height="939"
     inkscape:window-x="0"
     inkscape:window-y="34"
     inkscape:window-maximized="1"
     inkscape:current-layer="_图层_1" /><!-- Generator: Adobe Illustrator 29.0.1, SVG Export Plug-In . SVG Version: 2.1.0 Build 192)  --><defs
     id="defs6"><style
       id="style1">
      .st0 {
        fill-opacity: .5;
      }

      .st0, .st1, .st2, .st3, .st4, .st5, .st6, .st7 {
        fill: #fff;
      }

      .st8 {
        fill: #133c9a;
      }

      .st2, .st9 {
        display: none;
      }

      .st3 {
        fill-opacity: .2;
      }

      .st4 {
        fill-opacity: .9;
      }

      .st10 {
        fill: #3370ff;
      }

      .st11 {
        fill: url(#_未命名的渐变_3);
      }

      .st12 {
        fill: url(#_未命名的渐变);
      }

      .st5 {
        fill-opacity: .3;
      }

      .st6 {
        fill-opacity: 0;
      }

      .st7 {
        fill-opacity: .7;
      }

      .st13 {
        fill: #00d6b9;
      }

      .st14 {
        fill: url(#_未命名的渐变_2);
      }
    </style><radialGradient
       id="_未命名的渐变"
       data-name="未命名的渐变"
       cx="123.9"
       cy="-40.2"
       fx="123.9"
       fy="-40.2"
       r="59.4"
       gradientTransform="translate(-26.8 25.5) scale(.6 -.7)"
       gradientUnits="userSpaceOnUse"><stop
         offset="0"
         stop-color="#db202e"
         id="stop1" /><stop
         offset="1"
         stop-color="#e01b24"
         id="stop2" /></radialGradient><radialGradient
       id="_未命名的渐变_2"
       data-name="未命名的渐变 2"
       cx="67.6"
       cy="26.8"
       fx="67.6"
       fy="26.8"
       r="105.2"
       gradientTransform="translate(-26.6 25.3) scale(.6 -.7)"
       gradientUnits="userSpaceOnUse"><stop
         offset="0"
         stop-color="#ffb648"
         id="stop3" /><stop
         offset="1"
         stop-color="#ff7800"
         stop-opacity="0"
         id="stop4" /></radialGradient><radialGradient
       id="_未命名的渐变_3"
       data-name="未命名的渐变 3"
       cx="61.7"
       cy="18.6"
       fx="61.7"
       fy="18.6"
       r="68"
       gradientTransform="translate(-26.8 25.8) scale(.6 -.7)"
       gradientUnits="userSpaceOnUse"><stop
         offset="0"
         stop-color="#c64600"
         id="stop5" /><stop
         offset="1"
         stop-color="#a51d2d"
         id="stop6" /></radialGradient></defs><path
     class="st1"
     d="M47.5,64.1H13.8c-7.6,0-13.8-6.3-13.8-13.8V13.7C0,6.2,6.2,0,13.7,0h36.6c7.5,0,13.7,6.2,13.7,13.7v36.6c0,7.5-6.2,13.7-13.7,13.7h-2.9.1Z"
     id="path6"
     style="fill:#ffffff;fill-opacity:1" /><g
     id="g58"
     transform="matrix(0.81017967,0,0,0.87151409,5.7620042,4.5296586)"><ellipse
       style="fill:#3f3f3f"
       cx="36.521"
       cy="32.037998"
       rx="15.378"
       ry="19.572001"
       id="ellipse1" /><path
       style="opacity:0.2"
       d="M 36.999752,5.0005774 A 23.99975,27.99971 0 0 0 13,33.00029 23.99975,27.99971 0 0 0 36.999752,61 23.99975,27.99971 0 0 0 60.999504,33.00029 23.99975,27.99971 0 0 0 36.999752,5.0005774 Z m 0,11.9998756 c 5.688613,0 11.999876,6.094775 11.999876,15.999837 0,9.905055 -6.311263,15.999834 -11.999876,15.999834 -5.688613,0 -11.999876,-6.094777 -11.999876,-15.999834 0,-9.905062 6.311263,-15.999837 11.999876,-15.999837 z"
       id="path1-8" /><path
       style="fill:#4f4f4f"
       d="M 36.999752,4.0000531 A 23.99975,27.99971 0 0 0 13,31.999764 23.99975,27.99971 0 0 0 36.999752,59.999474 23.99975,27.99971 0 0 0 60.999504,31.999764 23.99975,27.99971 0 0 0 36.999752,4.0000531 Z m 0,11.9998759 c 5.688613,-10e-7 11.999876,6.094774 11.999876,15.999835 0,9.905056 -6.311263,15.999835 -11.999876,15.999835 -5.688613,0 -11.999876,-6.094777 -11.999876,-15.999835 0,-9.905061 6.311263,-15.999836 11.999876,-15.999835 z"
       id="path2" /><path
       style="opacity:0.1;fill:#ffffff"
       d="M 37,4 A 23.99975,27.99971 0 0 0 13,32 23.99975,27.99971 0 0 0 13.017578,32.414062 23.99975,27.99971 0 0 1 37,5 23.99975,27.99971 0 0 1 60.982422,32.59375 23.99975,27.99971 0 0 0 61,32 23.99975,27.99971 0 0 0 37,4 Z M 25.039062,33 C 25.024342,33.332372 25,33.658471 25,34 c 0,0.168773 0.0159,0.327591 0.01953,0.494141 0.0079,-0.163795 0.01226,-0.3299 0.01953,-0.494141 0.41226,9.30721 6.468469,15 11.960938,15 5.492469,0 11.548677,-5.692792 11.960938,-15 0.0073,0.164241 0.01166,0.330346 0.01953,0.494141 C 48.984099,34.327591 49,34.168773 49,34 49,33.658471 48.975658,33.332372 48.960938,33 48.548677,42.307208 42.492469,48 37,48 31.507531,48 25.451322,42.30721 25.039062,33 Z"
       id="path3-8" /><path
       style="opacity:0.2"
       d="M 18.884656,4.9190307 A 6.0005379,6.0005379 0 0 0 14.818292,6.6729188 L 4.8183951,16.672815 a 6.0005379,6.0005379 0 0 0 8.2421019,8.718661 v 29.523132 a 6.0005379,6.0005379 0 1 0 11.999876,0 V 10.915062 A 6.0005379,6.0005379 0 0 0 18.884656,4.9190307 Z"
       id="path4-4" /><path
       style="fill:none;stroke:#e4e4e4;stroke-width:11.9999;stroke-linecap:round;stroke-linejoin:round"
       d="M 9.0605388,19.914435 19.060435,9.9145382 V 53.914083"
       id="path5-3" /><path
       style="opacity:0.2;fill:#ffffff"
       d="M 18.884766,3.9179688 A 6.0005379,6.0005379 0 0 0 14.818359,5.671875 l -9.9999996,10 a 6.0005379,6.0005379 0 0 0 -1.7460938,4.71875 6.0005379,6.0005379 0 0 1 1.7460938,-3.71875 l 9.9999996,-10 a 6.0005379,6.0005379 0 0 1 4.066407,-1.7539062 6.0005379,6.0005379 0 0 1 6.175781,5.9960932 V 9.9140625 A 6.0005379,6.0005379 0 0 0 18.884766,3.9179688 Z"
       id="path6-1" /></g></svg>

<svg xmlns="http://www.w3.org/2000/svg" width="64" height="64" version="1.1">
 <ellipse style="fill:#3f3f3f" cx="36.521" cy="32.038" rx="15.378" ry="19.572"/>
 <path style="opacity:0.2" d="M 36.999752,5.0005774 A 23.99975,27.99971 0 0 0 13,33.00029 23.99975,27.99971 0 0 0 36.999752,61 23.99975,27.99971 0 0 0 60.999504,33.00029 23.99975,27.99971 0 0 0 36.999752,5.0005774 Z m 0,11.9998756 c 5.688613,0 11.999876,6.094775 11.999876,15.999837 0,9.905055 -6.311263,15.999834 -11.999876,15.999834 -5.688613,0 -11.999876,-6.094777 -11.999876,-15.999834 0,-9.905062 6.311263,-15.999837 11.999876,-15.999837 z"/>
 <path style="fill:#4f4f4f" d="M 36.999752,4.0000531 A 23.99975,27.99971 0 0 0 13,31.999764 23.99975,27.99971 0 0 0 36.999752,59.999474 23.99975,27.99971 0 0 0 60.999504,31.999764 23.99975,27.99971 0 0 0 36.999752,4.0000531 Z m 0,11.9998759 c 5.688613,-10e-7 11.999876,6.094774 11.999876,15.999835 0,9.905056 -6.311263,15.999835 -11.999876,15.999835 -5.688613,0 -11.999876,-6.094777 -11.999876,-15.999835 0,-9.905061 6.311263,-15.999836 11.999876,-15.999835 z"/>
 <path style="opacity:0.1;fill:#ffffff" d="M 37 4 A 23.99975 27.99971 0 0 0 13 32 A 23.99975 27.99971 0 0 0 13.017578 32.414062 A 23.99975 27.99971 0 0 1 37 5 A 23.99975 27.99971 0 0 1 60.982422 32.59375 A 23.99975 27.99971 0 0 0 61 32 A 23.99975 27.99971 0 0 0 37 4 z M 25.039062 33 C 25.024342 33.332372 25 33.658471 25 34 C 25 34.168773 25.015901 34.327591 25.019531 34.494141 C 25.027406 34.330346 25.031789 34.164241 25.039062 34 C 25.451322 43.30721 31.507531 49 37 49 C 42.492469 49 48.548677 43.307208 48.960938 34 C 48.968211 34.164241 48.972594 34.330346 48.980469 34.494141 C 48.984099 34.327591 49 34.168773 49 34 C 49 33.658471 48.975658 33.332372 48.960938 33 C 48.548677 42.307208 42.492469 48 37 48 C 31.507531 48 25.451322 42.30721 25.039062 33 z"/>
 <path style="opacity:0.2" d="M 18.884656,4.9190307 A 6.0005379,6.0005379 0 0 0 14.818292,6.6729188 L 4.8183951,16.672815 a 6.0005379,6.0005379 0 0 0 8.2421019,8.718661 v 29.523132 a 6.0005379,6.0005379 0 1 0 11.999876,0 V 10.915062 A 6.0005379,6.0005379 0 0 0 18.884656,4.9190307 Z"/>
 <path style="fill:none;stroke:#e4e4e4;stroke-width:11.99987602;stroke-linecap:round;stroke-linejoin:round" d="M 9.0605388,19.914435 19.060435,9.9145382 V 53.914083"/>
 <path style="opacity:0.2;fill:#ffffff" d="M 18.884766 3.9179688 A 6.0005379 6.0005379 0 0 0 14.818359 5.671875 L 4.8183594 15.671875 A 6.0005379 6.0005379 0 0 0 3.0722656 20.390625 A 6.0005379 6.0005379 0 0 1 4.8183594 16.671875 L 14.818359 6.671875 A 6.0005379 6.0005379 0 0 1 18.884766 4.9179688 A 6.0005379 6.0005379 0 0 1 25.060547 10.914062 L 25.060547 9.9140625 A 6.0005379 6.0005379 0 0 0 18.884766 3.9179688 z"/>
</svg>
